X:157
T: Zhongren kangshan shan hui dong
N: C0263
O: China,Fujian, Quanzhou
S: II, 569, 2)]
N: ]
R: Xiaodiao, Fengsuge, Cailiange. Xin minge]
M: 2/4
L: 1/16
K: G
B4A4 | d2B4A2 | B3dB2A2 | G4A4 | B3dB2A2 | G4A4 |
E4A2B2 | G4E4 | E2G2A2E2 | G4E4 |
A4d4 | B2B4A2 | B4E2A2 | G4E4 | B4E2A2 | G4E4 |
E2G2G2E2 | A3BA2G2 | E2A2G2A2 | E8

@@@ Tune index: 6158
